X:1
T:Contes divins
T:Les moutons des anges
T:Contes divins
T:6. Les Moutons des Anges 
T:Holmès, Augusta
T:(Holmès)
T:Creative Commons copyright waiver (CC0 1.0 Universal)
T:Creative Commons copyright waiver (CC0 1.0 Universal)
T:Creative Commons copyright waiver (CC0 1.0 Universal)
T:Creative Commons copyright waiver (CC0 1.0 Universal)
C:Holmès, Augusta
Z:(Holmès)
Z:Creative Commons copyright waiver (CC0 1.0 Universal)
%%score 1 2
L:1/8
Q:1/4=98
M:4/4
K:F#
V:1 treble nm="Chant\nVoice"
V:2 treble nm="Piano"
V:1
"^Andantino" z8 | z8 | z8 | z8 | z8 | z8 | z8 | z!pp! D F2- F D C2- | C4- C D/ E/ F G | %9
w: |||||||Là- haut, _ là- bas,|_ _ vo- yez- vous er-|
 A G/ F/ G4 G2 | z2 z/ G/ A/ B/ A F G2- | G2 z/ D/ E/ F/ G A G2- | G A/ B/ c2- c A/ G/ (FG) || %13
w: rer les nu- a- ges|Dans les es- pa- ces bleus|_ Com- me de blancs trou- peaux|_ ras- sem- blés _ sur les pla- *|
[K:Bb] B4- B!pp! c F c | B4- B c F c | B4- B!f! B/!<(! B/ _d!<)! _c/ B/ ||[K:F#] (GB) A4- A F || %17
w: ges _ d'un O- cé-|an _ mys- té- ri-|eux? _ Ces nei- geu- ses pha-|\- lan- * ges, _ Ce|
[M:3/4] G B A G/ F/ D E/ F/ ||[M:2/4] G2- G!f! A ||[M:4/4] !^!c A/ G/ F A (D2 E2) | %20
w: ne sont pas de nu- a- ges lé-|gers, _ Ce|sont les mou- tons des An- *|
 F4- F/"^crescendo" C/ D/ E/ F G | A F c2- (c A/) G/ F (G/A/) | D4 D2!f! F G | %23
w: ges. _ Car lors- qu'ils ont fi-|\- ni de di- * * re les Lou- *|an- ges, Tous les|
 (A2- A/G/F/A/ c) A/ F/ G C | F4- F!f! F c G/ A/ | F4- F G/ A/ c (G/A/) | F4 F!f! A G F/ ^E/ | %27
w: An- * * * * * ges sont des ber-|\- gers. _ Clo- chet- tes, chan-|tez _ com- me les mé- *|san- ges, Aux champs é- toi-|
 D4- D E/ F/ G D | C4- C!p!"^dim." F (E/D/) (E/C/) | F F/ G/ A2- A F (E/D/) (E/C/) | %30
w: \- lés _ pleins de fleurs de|miel! _ Son- nez _ clo- *|\- chet- tes du ciel! _ Son- nez * clo- *|
 F F/ G/ A2- A"^dim." F (E/D/) (E/C/) | F/ E/ F/ G/ A F (D2 EG) |!ppp! F4- F z z2 | z8 | z8 | z8 | %36
w: chet- tes du ciel! _ Son- nez * clo- *|\- chet- tes des mou- tons des An- * *|ges! _||||
 z4!p! z F (E/D/) (E/C/) | F F/ G/ A2- A z z2 | z4 z"^Rall."[Q:1/4=94] F (E/D/) (E/C/) | %39
w: Son- nez, * clo- *|chet- tes du ciel... _|Son- nez, * clo- *|
[Q:1/4=90] F/ E/ F/ G/[Q:1/4=87] !breath!A!pp! F[Q:1/4=84] (D4 |[Q:1/4=80] F4[Q:1/4=75] G4 | %41
w: \- chet- tes des mou- tons des An-||
 A4-) A2 z2 | !fermata!z8 |] %43
w: ges! _||
V:2
 z8 | z8 | z8 | z8 | z8 | z8 | z8 | z8 | z8 | z8 | z8 | z8 | z8 ||[K:Bb] z8 | z8 | z8 || %16
[K:F#] z8 ||[M:3/4] z6 ||[M:2/4] z4 ||[M:4/4] z8 | z8 | z8 | z8 | z8 | z8 | z8 | z8 | z8 | z8 | %29
 z8 | z8 | z8 | z8 | .[fac']2 .[gbd']2 .[fac']2 .[gbd']2 | z8 | z8 | z8 | z8 | z8 | z8 | z8 | z8 | %42
 z8 |] %43

